src/assets/social/icon-linkedin-hover.svg

<svg id="f4d79a6c-4264-4908-b95d-a2787d6e2117" data-name="Layer 1" xmlns="http://www.w3.org/2000/svg" viewBox="0 0 28 28"><defs><style>.c4b976b6-aa2e-4bcf-9451-8ff23aeb6f82{fill:#3d4e4d}.e014fe6e-976e-474f-80ca-03466195d136{fill:none}</style></defs><title>icon-linkedin-hover</title><path class="c4b976b6-aa2e-4bcf-9451-8ff23aeb6f82" d="M24.57 2H4.11a1.75 1.75 0 0 0-1.77 1.69v20.53A1.75 1.75 0 0 0 4.11 26h20.46a1.76 1.76 0 0 0 1.78-1.73V3.69A1.75 1.75 0 0 0 24.57 2zM9.46 22.41H5.9V11h3.56v11.41zm-1.78-13a2.06 2.06 0 1 1 2.06-2.09 2.06 2.06 0 0 1-2.06 2.07zm15.11 13h-3.56v-5.57c0-1.33 0-3-1.85-3s-2.13 1.45-2.13 2.94v5.66h-3.56V11h3.41v1.57a3.74 3.74 0 0 1 3.37-1.85c3.6 0 4.27 2.37 4.27 5.46v6.28z"/><path class="e014fe6e-976e-474f-80ca-03466195d136" d="M0 0h28v28H0z"/></svg>

<svg id="f4d79a6c-4264-4908-b95d-a2787d6e2117" data-name="Layer 1" xmlns="http://www.w3.org/2000/svg" viewBox="0 0 28 28"><defs><style>.c4b976b6-aa2e-4bcf-9451-8ff23aeb6f82{fill:#3d4e4d;}.e014fe6e-976e-474f-80ca-03466195d136{fill:none;}</style></defs><title>icon-linkedin-hover</title><path class="c4b976b6-aa2e-4bcf-9451-8ff23aeb6f82" d="M24.57,2H4.11A1.75,1.75,0,0,0,2.34,3.69V24.22A1.75,1.75,0,0,0,4.11,26H24.57a1.76,1.76,0,0,0,1.78-1.73V3.69A1.75,1.75,0,0,0,24.57,2ZM9.46,22.41H5.9V11H9.46V22.41Zm-1.78-13A2.06,2.06,0,1,1,9.74,7.32,2.06,2.06,0,0,1,7.68,9.39Zm15.11,13H19.23V16.84c0-1.33,0-3-1.85-3s-2.13,1.45-2.13,2.94v5.66H11.69V11h3.41v1.57h0a3.74,3.74,0,0,1,3.37-1.85c3.6,0,4.27,2.37,4.27,5.46v6.28Z"/><rect class="e014fe6e-976e-474f-80ca-03466195d136" width="28" height="28"/></svg>
